!!!!SEGMENT: pl-wtm--r-791-m_moniuszko-stanislaw--psalm-do-boga.krn
!!!cenid: 18xx:2860
!!!COM: Moniuszko, Stanisław
!!!COM-rismID: pe30008351
!!!CDT: 1819/05/05-1872/06/04
!!!CNT: Polish
!!!OTL: Psalm do Boga
!!!PDT:
!!!AGN:
!!!SMS-siglum: PL-Wtm
!!!SMS-shelfmark: R 791/M
!!!SMS-shelfwork: W
!!!SMS-variant:
!!!SMS-altvar:
!!!NIFC-rismSourceID: 1001100231
!!!NIFC-islandoraID:
!!!URL-pdf-islandora:
!!!URL-scan:
!!!ONB-nifc:
!!!AIN: 1 soprn 1 tenor
!!!key:
**kern	**kern	**text
*part2	*part1	*part1
*staff2	*staff1	*staff1
*Itenor	*Isoprn	*
*I"Tenor i baſ .	*I"Sopran i alt.	*
*I'T B	*I'S A	*
*>[A,B,B]	*>[A,B,B]	*>[A,B,B]
*clefF4	*clefG2	*
*k[f#c#g#d#]	*k[f#c#g#d#]	*
*E:	*E:	*
*M2/2	*M2/2	*
*met(c|)	*met(c|)	*
=1	=1	=1
*>A	*>A	*>A
*^	*^	*
*	*	*	*	*above
!	!	!LO:TX:a:t=Do Boga. Psalm 137, skrócony przez F. Kniaźnina.	!	!
2e/	2E\	2b/	2g#\	Pa-
4e/	4E\	4b/	4g#\	-ni
4e/	4E\	4b/	4g#\	przed
=2	=2	=2	=2	=2
2.d#/	2.BB\	(4b/	2.f#\	Two-
.	.	4a#X/)	.	im
.	.	2an/	.	u-
4d#/	4B\	.	4f#\	.
=3	=3	=3	=3	=3
4e/	4E\	4g#/	4e\	-pad-
4e/	4G#\	4b/	4e\	-szy
*	*	*	*	*below
4e/	4B\	4ee/	4g#\	tak!
*	*	*	*	*above
4d#/	4BB/	4dd#/	4a\	koś-
=4	=4	=4	=4	=4
2d#/	2BB/	2ff#/	2a\	-cio-
4e/	4E\	4ee/	4g#\	-łem
4r	4r	4r	4r	.
=5	=5	=5	=5	=5
2c#/	2AA/	2ee/	2e\	Będę
4B/	4A\	4dd#/	4e\	Cie
4A/	4A\	4cc#/	4e\	wiel-
=6	=6	=6	=6	=6
2G#/	2G#\	2b/	2e\	-bił
2Gn/	2Gn\	2b/	2e\	.
=7	=7	=7	=7	=7
(4F#/	2F#\	4b/	2f#\	z zni-
4B/)	.	4f#/	.	-żo-
4B/	4F#\	4dd#/	4f#\	-nem
*	*	*	*	*below
4A/	4F#\	4cc#/	4e\	tak!
!!LO:LB:g=original
=8	=8	=8	=8	=8
*	*	*	*	*above
2A/	2F#\	2cc#/	2e\	czo-
4B/	4BB\	4b/	4d#\	-łem
4r	4rc	4r	4rc	.
=9!|:	=9!|:	=9!|:	=9!|:	=9!|:
*>B	*>B	*>B	*>B	*>B
2e/	2E\	2g#/	2e\	Ty
4e/	4E\	4b/	4g#\	się
4e/	4E\	4b/	4g#\	ku
=10	=10	=10	=10	=10
2d#/	2D#\	2cc#/	2f#\	mo-
4d#/	4D#\	4b/	4f#\	-jej
4r	4r	4r	4r	.
=11	=11	=11	=11	=11
4e/	4C#\	4ee/	4g#\	na-
4e/	4C#\	4ee/	4g#\	-kło-
4e/	4C#\	4ee/	4a\	-nisz
4e/	4Cn\	4ee/	4a#X\	po-
=12	=12	=12	=12	=12
2d#/	2.BB\	2ee/	2.b\	-trze-
4d#/	.	4dd#/	.	-bie
4r	4AA\	4r	4b\	.
=13	=13	=13	=13	=13
2e/	2GG#\	2ee/	2b\	Ja
4e/	4AA\	4cc#/	4a\	wzy-
4e/	4AA\	4cc#/	4a\	-wam
=14	=14	=14	=14	=14
2e/	2BB\	2b/	2g#\	Cie-
2e/	2C#\	2g#/	2e\	-bie
=15	=15	=15	=15	=15
2e/	2AA#X\	2cc#/	2f#\	Ja
4d#/	4BB\	4b/	4f#\	wzy-
4A/	4BB\	4d#/	4B\	-wam
=16	=16	=16	=16	=16
2A/	2BB\	2f#/	2d#\	Cie-
4G#/	4E\	4e/	4e\	-bie
4r	4r	4r	4r	.
*v	*v	*	*	*
*	*v	*v	*
=:|!	=:|!	=:|!
*-	*-	*-
!!!system-decoration: {(s1,s2)}
!!!ENC: Marcin Jachim
!!!END: 2021-08-05
!!!ENC: Marta Lawrence
!!!END: 2021-09-07
!!!YEC: Copyright 2022 Narodowy Instytut Fryderyka Chopina (https://polishscores.org)
!!!YEM: Licence CC BY 4.0 (https://creativecommons.org/licenses/by/4.0)
